X:1
T:Langley's Daughter of Lisnabrock
M:C
L:1/8
B:Joyce - Old Irish Folk Music and Songs (1909, N0. 755)
Z:AK/Fiddler's Companion
K:Ddor
D|G3G A2 GF|D4 D2 zD|G3 G A2 GF|D4 D2 Ac|
c4 cddc|c3A A2 Ac|dedA c2 dc|AGFD D2 DE|
F2F2 FDDF|F4 F2 Ac|dedA c2 dc|
AGFD D2 {Ac}dc|AGFD C2 D>D|D4 D2||

